symbols/web/comment/materialsymbolsrounded/comment_wght300_24px.svg

<svg xmlns="http://www.w3.org/2000/svg" height="24" width="24"><path d="M7 13.75h10q.325 0 .538-.213.212-.212.212-.537 0-.325-.212-.538-.213-.212-.538-.212H7q-.325 0-.537.212-.213.213-.213.538 0 .325.213.537.212.213.537.213Zm0-3h10q.325 0 .538-.213.212-.212.212-.537 0-.325-.212-.538-.213-.212-.538-.212H7q-.325 0-.537.212-.213.213-.213.538 0 .325.213.537.212.213.537.213Zm0-3h10q.325 0 .538-.213.212-.212.212-.537 0-.325-.212-.537-.213-.213-.538-.213H7q-.325 0-.537.213-.213.212-.213.537 0 .325.213.537.212.213.537.213ZM19.975 19.5l-2.025-2H4.3q-.75 0-1.275-.525Q2.5 16.45 2.5 15.7V4.3q0-.75.525-1.275Q3.55 2.5 4.3 2.5h15.4q.75 0 1.275.525.525.525.525 1.275v14.55q0 .6-.55.838-.55.237-.975-.188ZM4 4.3V16h14.575L20 17.425V4.3q0-.125-.087-.213Q19.825 4 19.7 4H4.3q-.125 0-.212.087Q4 4.175 4 4.3Zm0 0v13.125V4v.3Z"/></svg>

<svg xmlns="http://www.w3.org/2000/svg" height="24" width="24"><path d="M7 13.75H17Q17.325 13.75 17.538 13.537Q17.75 13.325 17.75 13Q17.75 12.675 17.538 12.462Q17.325 12.25 17 12.25H7Q6.675 12.25 6.463 12.462Q6.25 12.675 6.25 13Q6.25 13.325 6.463 13.537Q6.675 13.75 7 13.75ZM7 10.75H17Q17.325 10.75 17.538 10.537Q17.75 10.325 17.75 10Q17.75 9.675 17.538 9.462Q17.325 9.25 17 9.25H7Q6.675 9.25 6.463 9.462Q6.25 9.675 6.25 10Q6.25 10.325 6.463 10.537Q6.675 10.75 7 10.75ZM7 7.75H17Q17.325 7.75 17.538 7.537Q17.75 7.325 17.75 7Q17.75 6.675 17.538 6.463Q17.325 6.25 17 6.25H7Q6.675 6.25 6.463 6.463Q6.25 6.675 6.25 7Q6.25 7.325 6.463 7.537Q6.675 7.75 7 7.75ZM19.975 19.5 17.95 17.5H4.3Q3.55 17.5 3.025 16.975Q2.5 16.45 2.5 15.7V4.3Q2.5 3.55 3.025 3.025Q3.55 2.5 4.3 2.5H19.7Q20.45 2.5 20.975 3.025Q21.5 3.55 21.5 4.3V18.85Q21.5 19.45 20.95 19.688Q20.4 19.925 19.975 19.5ZM4 4.3V15.7Q4 15.825 4 15.912Q4 16 4 16H18.575L20 17.425V4.3Q20 4.175 19.913 4.087Q19.825 4 19.7 4H4.3Q4.175 4 4.088 4.087Q4 4.175 4 4.3ZM4 4.3V17.425V16Q4 16 4 15.912Q4 15.825 4 15.7V4.3Q4 4.175 4 4.087Q4 4 4 4Q4 4 4 4.087Q4 4.175 4 4.3Z"/></svg>
